actions/22/edit-table-cell-merge.svg

<svg xmlns="http://www.w3.org/2000/svg" viewBox="0 0 22 22">
  <defs id="defs3051">
<style type="text/css" id="current-color-scheme">.ColorScheme-Text {color:#fcfcfc;}</style>
  </defs>
 <path 
    style="fill:currentColor;fill-opacity:1;stroke:none" 
    d="M 6,3 C 3,3 3,6 3,6 v 10 c 0,0 0,3 3,3 3,0 7,0 10,0 3,0 3,-3 3,-3 V 6 C 19,6 19,3 16,3 13,3 6,3 6,3 Z M 6,4 H 8 V 5 6 H 7 4 C 4,6 4,4 6,4 Z m 3,0 h 4 V 5 6 H 9 V 5 Z m 5,0 c 0,0 0,0 2,0 2,0 2,2 2,2 H 15 14 V 5 Z M 4,7 H 7 8 V 8 H 9 V 7 h 4 v 1 h 1 V 7 h 4 v 2 h -3 v 1 h 3 v 2 h -3 v 1 h 3 v 2 h -4 v -1 h -1 v 1 H 9 V 14 H 8 v 1 H 7 4 V 13 H 7 V 12 H 4 V 10 H 7 V 9 H 4 Z m 6,2 -2,2 2,2 z m 2,0 v 4 l 2,-2 z M 4,16 H 7 8 V 17.099609 18 c 0,0 0,0 -2,0 -2,0 -2,-2 -2,-2 z m 5,0 h 4 v 2 H 9 Z m 5,0 h 4 c 0,0 0,2 -2,2 -2,0 -2,0 -2,0 z"
    class="ColorScheme-Text"
    />  
</svg>

<svg xmlns="http://www.w3.org/2000/svg" viewBox="0 0 22 22">
  <defs id="defs3051">
    <style type="text/css" id="current-color-scheme">
      .ColorScheme-Text {
        color:#eff0f1;
      }
      </style>
  </defs>
 <path 
    style="fill:currentColor;fill-opacity:1;stroke:none" 
    d="M 3 3 L 3 4 L 3 19 L 4 19 L 18 19 L 19 19 L 19 4 L 19 3 L 3 3 z M 4 4 L 8 4 L 8 5 L 8 6 L 7 6 L 4 6 L 4 4 z M 9 4 L 13 4 L 13 5 L 13 6 L 9 6 L 9 5 L 9 4 z M 14 4 L 18 4 L 18 6 L 15 6 L 14 6 L 14 5 L 14 4 z M 4 7 L 7 7 L 8 7 L 8 8 L 9 8 L 9 7 L 13 7 L 13 8 L 14 8 L 14 7 L 18 7 L 18 9 L 15 9 L 15 10 L 18 10 L 18 12 L 15 12 L 15 13 L 18 13 L 18 15 L 14 15 L 14 14 L 13 14 L 13 15 L 9 15 L 9 14 L 8 14 L 8 15 L 7 15 L 4 15 L 4 13 L 7 13 L 7 12 L 4 12 L 4 10 L 7 10 L 7 9 L 4 9 L 4 7 z M 10 9 L 8 11 L 10 13 L 10 9 z M 12 9 L 12 13 L 14 11 L 12 9 z M 4 16 L 7 16 L 8 16 L 8 17.099609 L 8 18 L 4 18 L 4 16 z M 9 16 L 13 16 L 13 18 L 9 18 L 9 16 z M 14 16 L 18 16 L 18 18 L 14 18 L 14 16 z "
    class="ColorScheme-Text"
    />  
</svg>
